!!!!SEGMENT: pl-wtm--r-1461--013_stefani-jozef--wszechstronne-cwiczenia-glosowe-septymy-proste.krn
!!!cenid: 18xx:2190
!!!COM: Stefani, Józef
!!!COM-rismid: pe30024097
!!!CDT: 1800/04/16-1876/03/19
!!!CNT: Polish
!!!GTL: Wszechstronne ćwiczenia głosowe
!!!OTL: Septymy proste
!!!PDT:
!!!AGN: Secular
!!!SMS-siglum: PL-Wtm
!!!SMS-shelfmark: R 1461
!!!SMS-shelfwork: 013 G
!!!SMS-variant:
!!!SMS-altvar:
!!!NIFC-rismid: 1001120710
!!!system-decoration: s1{(s2,s3)}
!!!AIN: 1 empty 1 tenor
!!!key:
**kern	**kern	**kern	**text
*part2	*part2	*part1	*part1
*staff3	*staff2	*staff1	*staff1
*Iempty	*Iforte	*Itenor	*
*	*I"Fortepian	*I"Soprano/Tenore	*
*	*I'pf	*I'S/T	*
*clefF4	*clefG2	*clefG2	*
*k[]	*k[]	*k[]	*
*C:	*C:	*C:	*
*M2/2	*M2/2	*M2/2	*
*met(c|)	*met(c|)	*met(c|)	*
=1	=1	=1	=1
*2\right	*2\right	*2\right	*
!	!	!LO:TX:a:Bi:t=Septymy proste	!
2C 2CC\	2c 2G< 2E</	2c^>/	do
2G\	2b 2g 2d/	2b^>\	si
=2	=2	=2	=2
2F\	2b 2g 2d/	2d/	re
2E\	2cc 2g 2c/	2cc\	do
=3	=3	=3	=3
2c 2C\	2cc 2g 2e/	2e/	mi
2B 2BB\	2dd 2b 2g/	2dd\	re
=4	=4	=4	=4
2d 2D\	2dd 2b 2f/	2f/	fa
2c 2C\	2ee 2cc 2e\	2ee\	mi
=5	=5	=5	=5
2e 2E\	2ee 2cc 2g\	2g/	sol
2A 2AA\	2ff 2cc 2f\	2ff\	fa
=6	=6	=6	=6
2F\	2ff 2cc 2a\	2a/	la
2E\	2gg 2cc 2g\	2gg\	sol
!!LO:LB:g=original
=7	=7	=7	=7
2G 2GG/	2gg 2dd 2b 2g\	2b\	si
2F 2FF/	2aa 2dd 2a\	2aa\	la
=8||	=8||	=8||	=8||
1F 1FF	1aa 1dd 1b	2aa^>\	la
.	.	2b^>\	si
=9	=9	=9	=9
2E 2EE/	2gg 2cc 2b\	2gg\	sol
2F 2FF/	2ff 2cc 2a\	2a/	la
=10	=10	=10	=10
2D 2DD/	2ff 2b 2a\	2ff\	fa
2E 2EE/	2ee 2b 2g\	2g/	sol
=11	=11	=11	=11
2C/	2ee 2a 2g\	2ee\	mi
2D/	2dd 2a 2f\	2f/	fa
=12	=12	=12	=12
2BB/	2dd 2g 2f/	2dd\	re
2C/	2cc 2g 2e/	2e/	mi
!!LO:LB:g=original
=13	=13	=13	=13
2E\	2b 2g 2e/	2cc\	do
2F\	2cc 2a 2d/	2d/	re
=14	=14	=14	=14
*	*^	*	*
*	*	*^	*	*
2G\	2b/	2ryy	2f 2d\	2b\	si
!	!	!LO:TX:a:t=P:problem=note position	!	!	!
2A\	2cc/	4e/	2c\	2c/	do
.	.	4f#X/	.	.	.
*	*	*v	*v	*	*
=15	=15	=15	=15	=15
2G\	2cc/	1g 1d	1d	re
2G 2GG\	2b/	.	.	.
*	*v	*v	*	*
=16	=16	=16	=16
2.C 2.CC/	2.cc 2.g 2.e/	2.c/	do.
4r	4r	4r	.
==	==	==	==
*-	*-	*-	*-
!!title: @{OTL};
!!!RDF**kern: > = above
!!!RDF**kern: < = below
!!!RDF**kern: | = vertical stroke
!!!RDF**kern: N = linked
!!!RDF**kern: i = editorial accidental
!!!EED: Wojciech Jakubiak-Danek
!!!EEV: 2021-06-03
!!!URL-scan: http://repozytorium.nifc.pl/skany/pl-wtm-nut--r1461
!!!ONB-nifc: UWAGA: skan 0009, s. 15
!!!ENC: Berenika Jozajtis
!!!END: 2021-05-19
